X: 3398
T: WHITE WINGS
%R: jig
B: James Kerr "Merry Melodies" v.3 p.44 #398
Z: 2016 John Chambers <jc:trillian.mit.edu>
M: 6/8
L: 1/8
K: D
|:\
a3 f2e | dcd edB | Ade fgf | fe^d e3 |\
a3 f2e | dcd edB | Ade fgf | eBc d2z :|
|:\
e3 a2c | BAB cde | f^ga edc | cB^A B3 |\
c3 e2c | dcd a^gf | efe edc | BF^G A2z :|

%%sep 1 1 500
%%sep 1 1 500

